!!!COM:	Bach, Johann Sebastian
!!!CDT:	1685/02/21/-1750/07/28/
!!!OTL@@DE:	Christus ist erstanden, hat &uuml;berwunden
!!!SCT:	BWV 284
!!!PC#:	200
!!!AGN:	chorale
**kern	**kern	**kern	**kern
*ICvox	*ICvox	*ICvox	*ICvox
*Ibass	*Itenor	*Ialto	*Isoprn
*I"Bass	*I"Tenor	*I"Alto	*I"Soprano
*	*oclefC4	*oclefC3	*oclefC1
*clefF4	*clefGv2	*clefG2	*clefG2
*k[]	*k[]	*k[]	*k[]
*C:	*C:	*C:	*C:
*M4/4	*M4/4	*M4/4	*M4/4
*met(c)	*met(c)	*met(c)	*met(c)
*MM100	*MM100	*MM100	*MM100
=1-	=1-	=1-	=1-
4c	4e	4g	4cc
4B	4d	[4g	4g
4A	4c	8gL]	4a
.	.	8f#J	.
8GL	4d	4g	4b
8FJ	.	.	.
=2	=2	=2	=2
4E	8cL	4.g	2cc
.	8B-J	.	.
4F	4A	.	.
.	.	[8fnX	.
4C;	4G;	8fL]	4cc;
.	.	8e;J	.
8cL	4c	[4e	4g
8B-J	.	.	.
=3	=3	=3	=3
4A	4c	8eL]	4cc
.	.	8f#J	.
4G	4d	4g	4b-
4C	4e-	4g	2a
4D	8dL	4f#	.
.	8cJ	.	.
=4	=4	=4	=4
2GG;	2B-;	2d;	2g;
4G	4B-	8d	4g
.	.	4e-	.
4F#	4c	.	4a
.	.	[8d	.
=5	=5	=5	=5
4G	8B-L	8dL]	4b-
.	8GJ	8b-J	.
4C	4e-	8aL	4cc
.	.	8gJ	.
4D	[4d	8f#	4b-
.	.	4g	.
4DD	8.dL]	.	4a
.	.	8f#	.
.	16cJk	.	.
=6	=6	=6	=6
2GG;	2B-;	2d;	2g;
8CL	[4c	8enXL	4g
8D	.	8fnXJ	.
8E	8cL]	4g	4cc
8FJ	8dJ	.	.
=7	=7	=7	=7
4G	8eL	4g	4cc
.	16dL	.	.
.	16cJJ	.	.
4GG	8dL	4g	4b
.	[8fJ	.	.
2C;	8fL]	2g;	2cc;
.	16eL	.	.
.	16dJJ	.	.
.	4e;	.	.
=8	=8	=8	=8
8FL	4f	4a	4cc
8G	.	.	.
8F	4f	8aL	4cc
8EJ	.	8gJ	.
8DL	8fL	8fL	4dd
8E	8eJ	8gJ	.
8F	8dL	[4a	4dd
8GJ	8eJ	.	.
=9	=9	=9	=9
8AL	[4f	4a]	4cc
8F	.	.	.
8G	8fL]	8b-L	4b-
8CJ	8eJ	8gJ	.
2F;	2c;	2f;	2a;
=10	=10	=10	=10
8cL	4c	4e	4g
8B-J	.	.	.
4A	4c	8eL	4a
.	.	8f#J	.
8GL	4d	4.g	4b-
8BB-XJ	.	.	.
8CL	8e-L	.	4a
8DJ	16dL	8f#	.
.	16cJJ	.	.
=11	=11	=11	=11
2E-;	2B-;	2g;	2g;
4G	8B-L	8dL	4b-
.	8dJ	[8b-J	.
4F	4f	8b-L]	4cc
.	.	8aJ	.
=12	=12	=12	=12
8B-L	4f	2b-	4dd
8A	.	.	.
8G	8e-L	.	8ee-L
8FJ	8fJ	.	8ddJ
8E-XL	8gL	4b-	2cc
8CJ	8e-J	.	.
4F	8cL	4a	.
.	8fJ	.	.
=13	=13	=13	=13
2BB-;	2f;	2b-;	2dd;
4B-X	4f	4.b-	4dd
4F	4f	.	4cc
.	.	8a	.
=14	=14	=14	=14
8B-L	4f	4b-	4dd
8A	.	.	.
8G	8e-L	4a	4cc
8F#J	8dJ	.	.
8GL	4d	4g	4b-
8A	.	.	.
8B-	4c	4enX	4g
8cJ	.	.	.
=15	=15	=15	=15
4FnX	4c	8fL	4a
.	.	8e	.
4G	4G	8d	4bnX
.	.	8fJ	.
2C;	2G;	2e;	2cc;
==	==	==	==
*-	*-	*-	*-
!!!YOR1: 371 vierstimmige Choralges&auml;nge von Johann Sebastian Bach, 
!!!YOR2: 4th ed. by Alfred D&ouml;rffel (Leipzig: Breitkopf und H&auml;rtel, 
!!!YOR2: c.1875). 178 pp. Plate "V.A.10".  reprint: J.S. Bach, 371 Four-Part 
!!!YOR4: Chorales (New York: Associated Music Publishers, Inc., c.1940).
!!!SMS: B&H, 4th ed, Alfred D&ouml;rffel, c.1875, plate V.A.10
!!!EED:  Craig Stuart Sapp
!!!EEV:  2009/05/22
